posts/Lab-6-Challenge/module.svg

<svg xmlns="http://www.w3.org/2000/svg" xmlns:xlink="http://www.w3.org/1999/xlink" width="421" height="241" viewBox="-0.5 -0.5 421 241" style="background-color:#fff"><rect x="160" y="90" width="100" height="60" rx="9" ry="9" fill="#FFF" stroke="#000" pointer-events="all"/><switch transform="translate(-.5 -.5)"><foreignObject pointer-events="none" width="100%" height="100%" requiredFeatures="http://www.w3.org/TR/SVG11/feature#Extensibility" style="overflow:visible;text-align:left"><div xmlns="http://www.w3.org/1999/xhtml" style="display:flex;align-items:unsafe center;justify-content:unsafe center;width:98px;height:1px;padding-top:120px;margin-left:161px"><div data-drawio-colors="color: rgb(0, 0, 0);" style="box-sizing:border-box;font-size:0;text-align:center"><div style="display:inline-block;font-size:14px;font-family:Helvetica;color:#000;line-height:1.2;pointer-events:all;font-weight:700;white-space:normal;overflow-wrap:normal">Pash Core</div></div></div></foreignObject><text x="210" y="124" font-family="Helvetica" font-size="14" text-anchor="middle" font-weight="bold">Pash Core</text></switch><path d="M290 120h-20 10-13.63" fill="none" stroke="#000" stroke-miterlimit="10" pointer-events="stroke"/><path d="m261.12 120 7-3.5-1.75 3.5 1.75 3.5Z" stroke="#000" stroke-miterlimit="10" pointer-events="all"/><rect x="290" y="100" width="100" height="40" rx="6" ry="6" fill="#FFF" stroke="#000" pointer-events="all"/><switch transform="translate(-.5 -.5)"><foreignObject pointer-events="none" width="100%" height="100%" requiredFeatures="http://www.w3.org/TR/SVG11/feature#Extensibility" style="overflow:visible;text-align:left"><div xmlns="http://www.w3.org/1999/xhtml" style="display:flex;align-items:unsafe center;justify-content:unsafe center;width:98px;height:1px;padding-top:120px;margin-left:291px"><div data-drawio-colors="color: rgb(0, 0, 0);" style="box-sizing:border-box;font-size:0;text-align:center"><div style="display:inline-block;font-size:12px;font-family:Helvetica;color:#000;line-height:1.2;pointer-events:all;white-space:normal;overflow-wrap:normal">Input Handler</div></div></div></foreignObject><text x="340" y="124" font-family="Helvetica" font-size="12" text-anchor="middle">Input Handler</text></switch><path d="M130 120h20-10 13.63" fill="none" stroke="#000" stroke-miterlimit="10" pointer-events="stroke"/><path d="m158.88 120-7 3.5 1.75-3.5-1.75-3.5Z" stroke="#000" stroke-miterlimit="10" pointer-events="all"/><rect x="20" y="95" width="110" height="50" rx="7.5" ry="7.5" fill="#FFF" stroke="#000" pointer-events="all"/><switch transform="translate(-.5 -.5)"><foreignObject pointer-events="none" width="100%" height="100%" requiredFeatures="http://www.w3.org/TR/SVG11/feature#Extensibility" style="overflow:visible;text-align:left"><div xmlns="http://www.w3.org/1999/xhtml" style="display:flex;align-items:unsafe center;justify-content:unsafe center;width:108px;height:1px;padding-top:120px;margin-left:21px"><div data-drawio-colors="color: rgb(0, 0, 0);" style="box-sizing:border-box;font-size:0;text-align:center"><div style="display:inline-block;font-size:12px;font-family:Helvetica;color:#000;line-height:1.2;pointer-events:all;white-space:normal;overflow-wrap:normal">Argument Parser</div></div></div></foreignObject><text x="75" y="124" font-family="Helvetica" font-size="12" text-anchor="middle">Argument Parser</text></switch><path d="M340 60v33.63" fill="none" stroke="#000" stroke-miterlimit="10" pointer-events="stroke"/><path d="m340 98.88-3.5-7 3.5 1.75 3.5-1.75Z" stroke="#000" stroke-miterlimit="10" pointer-events="all"/><ellipse cx="340" cy="40" rx="60" ry="20" fill="#FFF" stroke="#000" pointer-events="all"/><switch transform="translate(-.5 -.5)"><foreignObject pointer-events="none" width="100%" height="100%" requiredFeatures="http://www.w3.org/TR/SVG11/feature#Extensibility" style="overflow:visible;text-align:left"><div xmlns="http://www.w3.org/1999/xhtml" style="display:flex;align-items:unsafe center;justify-content:unsafe center;width:118px;height:1px;padding-top:40px;margin-left:281px"><div data-drawio-colors="color: rgb(0, 0, 0);" style="box-sizing:border-box;font-size:0;text-align:center"><div style="display:inline-block;font-size:12px;font-family:Helvetica;color:#000;line-height:1.2;pointer-events:all;white-space:normal;overflow-wrap:normal">History Service</div></div></div></foreignObject><text x="340" y="44" font-family="Helvetica" font-size="12" text-anchor="middle">History Service</text></switch><path d="M340 180v-33.63" fill="none" stroke="#000" stroke-miterlimit="10" pointer-events="stroke"/><path d="m340 141.12 3.5 7-3.5-1.75-3.5 1.75Z" stroke="#000" stroke-miterlimit="10" pointer-events="all"/><ellipse cx="340" cy="200" rx="60" ry="20" fill="#FFF" stroke="#000" pointer-events="all"/><switch transform="translate(-.5 -.5)"><foreignObject pointer-events="none" width="100%" height="100%" requiredFeatures="http://www.w3.org/TR/SVG11/feature#Extensibility" style="overflow:visible;text-align:left"><div xmlns="http://www.w3.org/1999/xhtml" style="display:flex;align-items:unsafe center;justify-content:unsafe center;width:118px;height:1px;padding-top:200px;margin-left:281px"><div data-drawio-colors="color: rgb(0, 0, 0);" style="box-sizing:border-box;font-size:0;text-align:center"><div style="display:inline-block;font-size:12px;font-family:Helvetica;color:#000;line-height:1.2;pointer-events:all;white-space:normal;overflow-wrap:normal">Completion Service</div></div></div></foreignObject><text x="340" y="204" font-family="Helvetica" font-size="12" text-anchor="middle">Completion Service</text></switch><path fill="none" pointer-events="all" d="M340 60h60v30h-60z"/><switch transform="translate(-.5 -.5)"><foreignObject pointer-events="none" width="100%" height="100%" requiredFeatures="http://www.w3.org/TR/SVG11/feature#Extensibility" style="overflow:visible;text-align:left"><div xmlns="http://www.w3.org/1999/xhtml" style="display:flex;align-items:unsafe center;justify-content:unsafe center;width:58px;height:1px;padding-top:75px;margin-left:341px"><div data-drawio-colors="color: rgb(0, 0, 0);" style="box-sizing:border-box;font-size:0;text-align:center"><div style="display:inline-block;font-size:12px;font-family:Helvetica;color:#000;line-height:1.2;pointer-events:all;white-space:normal;overflow-wrap:normal">Callback</div></div></div></foreignObject><text x="370" y="79" font-family="Helvetica" font-size="12" text-anchor="middle">Callback</text></switch><path fill="none" pointer-events="all" d="M340 150h60v30h-60z"/><switch transform="translate(-.5 -.5)"><foreignObject pointer-events="none" width="100%" height="100%" requiredFeatures="http://www.w3.org/TR/SVG11/feature#Extensibility" style="overflow:visible;text-align:left"><div xmlns="http://www.w3.org/1999/xhtml" style="display:flex;align-items:unsafe center;justify-content:unsafe center;width:58px;height:1px;padding-top:165px;margin-left:341px"><div data-drawio-colors="color: rgb(0, 0, 0);" style="box-sizing:border-box;font-size:0;text-align:center"><div style="display:inline-block;font-size:12px;font-family:Helvetica;color:#000;line-height:1.2;pointer-events:all;white-space:normal;overflow-wrap:normal">Callback</div></div></div></foreignObject><text x="370" y="169" font-family="Helvetica" font-size="12" text-anchor="middle">Callback</text></switch><switch><a transform="translate(0 -5)" xlink:href="https://www.drawio.com/doc/faq/svg-export-text-problems" target="_blank"><text text-anchor="middle" font-size="10" x="50%" y="100%">Text is not SVG - cannot display</text></a></switch></svg>

<?xml version="1.0" encoding="UTF-8"?>
<!DOCTYPE svg PUBLIC "-//W3C//DTD SVG 1.1//EN" "http://www.w3.org/Graphics/SVG/1.1/DTD/svg11.dtd">
<svg xmlns="http://www.w3.org/2000/svg" xmlns:xlink="http://www.w3.org/1999/xlink" version="1.1" width="421px" height="241px" viewBox="-0.5 -0.5 421 241" style="background-color: rgb(255, 255, 255);"><defs/><g><rect x="160" y="90" width="100" height="60" rx="9" ry="9" fill="rgb(255, 255, 255)" stroke="rgb(0, 0, 0)" pointer-events="all"/><g transform="translate(-0.5 -0.5)"><switch><foreignObject pointer-events="none" width="100%" height="100%" requiredFeatures="http://www.w3.org/TR/SVG11/feature#Extensibility" style="overflow: visible; text-align: left;"><div xmlns="http://www.w3.org/1999/xhtml" style="display: flex; align-items: unsafe center; justify-content: unsafe center; width: 98px; height: 1px; padding-top: 120px; margin-left: 161px;"><div data-drawio-colors="color: rgb(0, 0, 0); " style="box-sizing: border-box; font-size: 0px; text-align: center;"><div style="display: inline-block; font-size: 14px; font-family: Helvetica; color: rgb(0, 0, 0); line-height: 1.2; pointer-events: all; font-weight: bold; white-space: normal; overflow-wrap: normal;">Pash Core</div></div></div></foreignObject><text x="210" y="124" fill="rgb(0, 0, 0)" font-family="Helvetica" font-size="14px" text-anchor="middle" font-weight="bold">Pash Core</text></switch></g><path d="M 290 120 L 270 120 L 280 120 L 266.37 120" fill="none" stroke="rgb(0, 0, 0)" stroke-miterlimit="10" pointer-events="stroke"/><path d="M 261.12 120 L 268.12 116.5 L 266.37 120 L 268.12 123.5 Z" fill="rgb(0, 0, 0)" stroke="rgb(0, 0, 0)" stroke-miterlimit="10" pointer-events="all"/><rect x="290" y="100" width="100" height="40" rx="6" ry="6" fill="rgb(255, 255, 255)" stroke="rgb(0, 0, 0)" pointer-events="all"/><g transform="translate(-0.5 -0.5)"><switch><foreignObject pointer-events="none" width="100%" height="100%" requiredFeatures="http://www.w3.org/TR/SVG11/feature#Extensibility" style="overflow: visible; text-align: left;"><div xmlns="http://www.w3.org/1999/xhtml" style="display: flex; align-items: unsafe center; justify-content: unsafe center; width: 98px; height: 1px; padding-top: 120px; margin-left: 291px;"><div data-drawio-colors="color: rgb(0, 0, 0); " style="box-sizing: border-box; font-size: 0px; text-align: center;"><div style="display: inline-block; font-size: 12px; font-family: Helvetica; color: rgb(0, 0, 0); line-height: 1.2; pointer-events: all; white-space: normal; overflow-wrap: normal;">Input Handler</div></div></div></foreignObject><text x="340" y="124" fill="rgb(0, 0, 0)" font-family="Helvetica" font-size="12px" text-anchor="middle">Input Handler</text></switch></g><path d="M 130 120 L 150 120 L 140 120 L 153.63 120" fill="none" stroke="rgb(0, 0, 0)" stroke-miterlimit="10" pointer-events="stroke"/><path d="M 158.88 120 L 151.88 123.5 L 153.63 120 L 151.88 116.5 Z" fill="rgb(0, 0, 0)" stroke="rgb(0, 0, 0)" stroke-miterlimit="10" pointer-events="all"/><rect x="20" y="95" width="110" height="50" rx="7.5" ry="7.5" fill="rgb(255, 255, 255)" stroke="rgb(0, 0, 0)" pointer-events="all"/><g transform="translate(-0.5 -0.5)"><switch><foreignObject pointer-events="none" width="100%" height="100%" requiredFeatures="http://www.w3.org/TR/SVG11/feature#Extensibility" style="overflow: visible; text-align: left;"><div xmlns="http://www.w3.org/1999/xhtml" style="display: flex; align-items: unsafe center; justify-content: unsafe center; width: 108px; height: 1px; padding-top: 120px; margin-left: 21px;"><div data-drawio-colors="color: rgb(0, 0, 0); " style="box-sizing: border-box; font-size: 0px; text-align: center;"><div style="display: inline-block; font-size: 12px; font-family: Helvetica; color: rgb(0, 0, 0); line-height: 1.2; pointer-events: all; white-space: normal; overflow-wrap: normal;">Argument Parser</div></div></div></foreignObject><text x="75" y="124" fill="rgb(0, 0, 0)" font-family="Helvetica" font-size="12px" text-anchor="middle">Argument Parser</text></switch></g><path d="M 340 60 L 340 93.63" fill="none" stroke="rgb(0, 0, 0)" stroke-miterlimit="10" pointer-events="stroke"/><path d="M 340 98.88 L 336.5 91.88 L 340 93.63 L 343.5 91.88 Z" fill="rgb(0, 0, 0)" stroke="rgb(0, 0, 0)" stroke-miterlimit="10" pointer-events="all"/><ellipse cx="340" cy="40" rx="60" ry="20" fill="rgb(255, 255, 255)" stroke="rgb(0, 0, 0)" pointer-events="all"/><g transform="translate(-0.5 -0.5)"><switch><foreignObject pointer-events="none" width="100%" height="100%" requiredFeatures="http://www.w3.org/TR/SVG11/feature#Extensibility" style="overflow: visible; text-align: left;"><div xmlns="http://www.w3.org/1999/xhtml" style="display: flex; align-items: unsafe center; justify-content: unsafe center; width: 118px; height: 1px; padding-top: 40px; margin-left: 281px;"><div data-drawio-colors="color: rgb(0, 0, 0); " style="box-sizing: border-box; font-size: 0px; text-align: center;"><div style="display: inline-block; font-size: 12px; font-family: Helvetica; color: rgb(0, 0, 0); line-height: 1.2; pointer-events: all; white-space: normal; overflow-wrap: normal;">History Service</div></div></div></foreignObject><text x="340" y="44" fill="rgb(0, 0, 0)" font-family="Helvetica" font-size="12px" text-anchor="middle">History Service</text></switch></g><path d="M 340 180 L 340 146.37" fill="none" stroke="rgb(0, 0, 0)" stroke-miterlimit="10" pointer-events="stroke"/><path d="M 340 141.12 L 343.5 148.12 L 340 146.37 L 336.5 148.12 Z" fill="rgb(0, 0, 0)" stroke="rgb(0, 0, 0)" stroke-miterlimit="10" pointer-events="all"/><ellipse cx="340" cy="200" rx="60" ry="20" fill="rgb(255, 255, 255)" stroke="rgb(0, 0, 0)" pointer-events="all"/><g transform="translate(-0.5 -0.5)"><switch><foreignObject pointer-events="none" width="100%" height="100%" requiredFeatures="http://www.w3.org/TR/SVG11/feature#Extensibility" style="overflow: visible; text-align: left;"><div xmlns="http://www.w3.org/1999/xhtml" style="display: flex; align-items: unsafe center; justify-content: unsafe center; width: 118px; height: 1px; padding-top: 200px; margin-left: 281px;"><div data-drawio-colors="color: rgb(0, 0, 0); " style="box-sizing: border-box; font-size: 0px; text-align: center;"><div style="display: inline-block; font-size: 12px; font-family: Helvetica; color: rgb(0, 0, 0); line-height: 1.2; pointer-events: all; white-space: normal; overflow-wrap: normal;">Completion Service</div></div></div></foreignObject><text x="340" y="204" fill="rgb(0, 0, 0)" font-family="Helvetica" font-size="12px" text-anchor="middle">Completion Service</text></switch></g><rect x="340" y="60" width="60" height="30" fill="none" stroke="none" pointer-events="all"/><g transform="translate(-0.5 -0.5)"><switch><foreignObject pointer-events="none" width="100%" height="100%" requiredFeatures="http://www.w3.org/TR/SVG11/feature#Extensibility" style="overflow: visible; text-align: left;"><div xmlns="http://www.w3.org/1999/xhtml" style="display: flex; align-items: unsafe center; justify-content: unsafe center; width: 58px; height: 1px; padding-top: 75px; margin-left: 341px;"><div data-drawio-colors="color: rgb(0, 0, 0); " style="box-sizing: border-box; font-size: 0px; text-align: center;"><div style="display: inline-block; font-size: 12px; font-family: Helvetica; color: rgb(0, 0, 0); line-height: 1.2; pointer-events: all; white-space: normal; overflow-wrap: normal;">Callback</div></div></div></foreignObject><text x="370" y="79" fill="rgb(0, 0, 0)" font-family="Helvetica" font-size="12px" text-anchor="middle">Callback</text></switch></g><rect x="340" y="150" width="60" height="30" fill="none" stroke="none" pointer-events="all"/><g transform="translate(-0.5 -0.5)"><switch><foreignObject pointer-events="none" width="100%" height="100%" requiredFeatures="http://www.w3.org/TR/SVG11/feature#Extensibility" style="overflow: visible; text-align: left;"><div xmlns="http://www.w3.org/1999/xhtml" style="display: flex; align-items: unsafe center; justify-content: unsafe center; width: 58px; height: 1px; padding-top: 165px; margin-left: 341px;"><div data-drawio-colors="color: rgb(0, 0, 0); " style="box-sizing: border-box; font-size: 0px; text-align: center;"><div style="display: inline-block; font-size: 12px; font-family: Helvetica; color: rgb(0, 0, 0); line-height: 1.2; pointer-events: all; white-space: normal; overflow-wrap: normal;">Callback</div></div></div></foreignObject><text x="370" y="169" fill="rgb(0, 0, 0)" font-family="Helvetica" font-size="12px" text-anchor="middle">Callback</text></switch></g></g><switch><g requiredFeatures="http://www.w3.org/TR/SVG11/feature#Extensibility"/><a transform="translate(0,-5)" xlink:href="https://www.drawio.com/doc/faq/svg-export-text-problems" target="_blank"><text text-anchor="middle" font-size="10px" x="50%" y="100%">Text is not SVG - cannot display</text></a></switch></svg>
